X:1
T:Title
%%score { ( 1 3 ) | ( 2 4 ) }
L:1/8
Q:1/4=100
M:6/8
K:D
V:1 treble nm="Grand Piano"
V:3 treble 
V:2 bass 
V:4 bass 
V:1
 F>FF FE>F | G3 G3 | G>GG GAG | F6 | [FA]>[FA][FA] [FA][=F^G][^FA] | [GB]3 [GB]3 | %6
w: D.~B.~Towner * * * * *||||||
 [^GB]>[GB][GB] [GB][Gc][Gd] | c6 | [Fd]>[Fd][Fd] [Fd][Fc]>B | A3 F3 | B>BB BcB | A6 | %12
w: ||||||
 [Fd]>[Gd][Ad] ded | d3 B3 | AA>A [CA][CG][CE] | D6 |] %16
w: ||||
V:2
 [D,A,D]>[D,A,D][D,A,D] [D,A,D][D,A,D]>[D,A,D] | [E,A,C]3 [E,A,C]3 | %2
 [A,C]>[A,B,D][A,CE] [A,CE][A,CE][A,E] | [D,A,D]6 | [D,D]>[D,D][D,D] [D,D][D,D][D,D] | %5
 [G,D]3 [G,D]3 | [E,E]>[E,E][E,E] [E,E][E,E][E,E] | A3 z3 | %8
 [D,D]>[D,C][D,B,] [D,A,][D,A,]>[D,G,D] | [D,F,D]3 [D,A,D]3 | [G,D]>[G,D][G,D] [G,D][G,D][G,D] | %11
 [D,F,D]6 | [D,A,]>[E,A,][F,A,][K:treble] [G,B,G][G,B,G][G,B,G] | [G,B,G]3 [G,DG]3 | %14
 [A,DF][K:bass][A,CE]>[A,B,D] [A,,A,][A,,A,][A,,G,] | [D,F,]6 |] %16
V:3
 x6 | x6 | x6 | x6 | x6 | x6 | x6 | z3 F3 | x6 | x6 | x6 | x6 | x6 | x6 | x6 | x6 |] %16
V:4
 x6 | x6 | x6 | x6 | x6 | x6 | x6 | [A,E]6 | x6 | x6 | x6 | x6 | x3[K:treble] x3 | x6 | %14
 x[K:bass] x5 | x6 |] %16

